logo/bubble-icon.svg

<?xml version="1.0" encoding="UTF-8"?>
<svg width="256px" height="276px" viewBox="0 0 256 276" version="1.1" xmlns="http://www.w3.org/2000/svg" preserveAspectRatio="xMidYMid">
		<title>Bubble</title>
    <g>
				<path d="M156.687886,71.5306475 C131.928045,71.5306475 107.524298,82.1604077 88.8931172,103.059013 L88.8931172,0 L52.0240423,0 L52.0240423,173.506229 C52.0240423,173.510361 52.0240423,173.514494 52.0240423,173.519315 C52.0240423,229.845404 97.6852437,275.506605 154.012021,275.506605 C210.33811,275.506605 256,229.845404 256,173.519315 C256,117.193226 213.013974,71.5306475 156.687886,71.5306475 M154.012021,236.224775 C119.380066,236.224775 91.3051835,208.149893 91.3051835,173.518626 C91.3051835,138.886671 119.380066,110.811789 154.012021,110.811789 C188.643288,110.811789 216.71817,138.886671 216.71817,173.518626 C216.71817,208.150582 188.643288,236.224775 154.012021,236.224775" fill="#262626"></path>
				<path d="M25.2199377,225.066041 C11.2909777,225.066041 1.0658141e-14,236.357707 1.0658141e-14,250.285979 C1.0658141e-14,264.21425 11.2909777,275.505916 25.2199377,275.505916 C39.1488977,275.505916 50.4398754,264.21425 50.4398754,250.285979 C50.4398754,236.357707 39.1488977,225.066041 25.2199377,225.066041" fill="#0000FF"></path>
		</g>
</svg>

<svg viewBox="0 0 256 276" xmlns="http://www.w3.org/2000/svg"><path fill="#262626" d="M156.68 71.53c-24.76 0-49.17 10.62-67.8 31.52V-.01H52.01v173.5s0 0 0 .01c0 56.32 45.66 101.98 101.98 101.98 56.32 0 101.98-45.67 101.98-101.99 0-56.33-42.99-101.99-99.32-101.99m-2.68 164.69c-34.64 0-62.71-28.08-62.71-62.71 0-34.64 28.07-62.71 62.7-62.71s62.7 28.07 62.7 62.7 -28.08 62.7-62.71 62.7"/><path fill="#00F" d="M25.21 225.06c-13.93 0-25.22 11.29-25.22 25.21 0 13.92 11.29 25.21 25.21 25.21 13.92 0 25.21-11.3 25.21-25.22 0-13.93-11.3-25.22-25.22-25.22"/></svg>
